X:480
T: Shoemaker's Fancy
S: B.Breathnach:"Ceol Rince na hEireann" II/6 (gan ainm)
Z: B.Black
L: 1/8
M: 6/8
R: jig
K: G
A/G/|FDD DFA|dcA A2G|fdd cAA|dcA Gag|
fdd edc|dcA d2e|f2f ded|cAF G2 :|
F/G/|cAA efd|cAB c2d|cAA efd|cAF G2B|
cAA f2d|cAB cde|fff ded|cAF G2B|
